X: 31519
T: Paddy's Leather Breeches
R: reel
M: 4/4
K: Bdorian
AB B/B/B f2 ef|fB B/B/B f2 ef|AB B/B/B f2 ef|cAAc fece|
AB B/B/B f2 ef|fB B/B/B f2 ef|faaf eaae|cAAc fece:|
a4 f2 ef|fB B/B/B f2 ef|a2 a2 f2 ef|cAAc fece|
a2 a2 f2 ef|fB B/B/B f2 ef|faaf eaae|cAAc fece:|
AB B/B/B Bc c/c/c|AB B/B/B f2 ef|ec c/c/c cB B/B/B|BA A/A/A fece|
AB B/B/B Bc c/c/c|AB B/B/B f2 ef|faaf eaae|cAAc fece:|
a2 a2 feef|fB B/B/B feef|a2 a2 f2 ef|cA A/A/A fece|
a2 a2 f2 ef|fB B/B/Bf2 ef|faaf eaae|cAAc fece:|

